icon-themes/breeze_svg/chart2/res/lc_typenet.svg

<svg viewBox="0 0 24 24" xmlns="http://www.w3.org/2000/svg"><path d="m12 4v1.3105469l-3.5507812 3.9941406-1.7148438-.8515625-2.2714844-1.2128906-.46875.875 2.3027344 1.2441406 1.703125.857422v5.492187l-1.828125 1.837891-1.7890625 1.824219.6523437.630859 1.8242188-1.736328 1.7363281-1.736328 9.7265629 1.945312 1.009765 1.019532.683594-.775391-1.015625-1.029297v-8.455078l1-.46875-.449219-.9277344-1.113281.546875-5.4375-3.171875v-1.2128906zm1 2.3710938 4.365234 2.5449218-4.349609 2.1621094v-.078125l-.015625-2v-1zm-1 .4433593v4.2558589l-2.6230469-1.304687zm6 2.9121094v6.9609375l-4.640625-4.640625zm-9 .9921875 2.640625 1.328125-2.640625 2.65625zm3.515625 1.890625 4.548828 4.59375-7.6191405-1.523437z" fill="#4d4d4d"/></svg>

<svg xmlns="http://www.w3.org/2000/svg" viewBox="0 0 24 24">
 <path 
     style="fill:#4d4d4d" 
     d="M 12 4 L 12 5.3105469 L 8.4492188 9.3046875 L 6.734375 8.453125 L 4.4628906 7.2402344 L 3.9941406 8.1152344 L 6.296875 9.359375 L 8 10.216797 L 8 15.708984 L 6.171875 17.546875 L 4.3828125 19.371094 L 5.0351562 20.001953 L 6.859375 18.265625 L 8.5957031 16.529297 L 18.322266 18.474609 L 19.332031 19.494141 L 20.015625 18.71875 L 19 17.689453 L 19 9.234375 L 20 8.765625 L 19.550781 7.8378906 L 18.4375 8.3847656 L 13 5.2128906 L 13 4 L 12 4 z M 13 6.3710938 L 17.365234 8.9160156 L 13.015625 11.078125 L 13.015625 11 L 13 9 L 13 8 L 13 6.3710938 z M 12 6.8144531 L 12 11.070312 L 9.3769531 9.765625 L 12 6.8144531 z M 18 9.7265625 L 18 16.6875 L 13.359375 12.046875 L 18 9.7265625 z M 9 10.71875 L 11.640625 12.046875 L 9 14.703125 L 9 10.71875 z M 12.515625 12.609375 L 17.064453 17.203125 L 9.4453125 15.679688 L 12.515625 12.609375 z "
     />
 </svg>
